X:1
T:Isaac Watts, 1707 (Hymn 39, Book 1)              86. 86. (C. M.)
T:F Major William Billings, 1794
T:Washington-Street
T:Transcribed from The Columbian Harmony, 1794. 
%%score [ 1 2 3 4 ]
L:1/8
Q:1/4=120
M:2/2
K:F
V:1 treble nm="Tr." snm="Tr."
V:2 treble nm="C." snm="C."
V:3 treble-8 nm="T." snm="T."
V:4 bass nm="B." snm="B."
V:1
 c4 A2 G2 | A2 AB c2 c2 | (c4 d2) c2 | dB c2 c2 d2 | e4 c4 | A2 G2 A2 AB | c2 c2 c2 =B2 | %7
 c2 c2 d2 d2 | (d3 c B2) cA | cA d2 c2 c2 | c8 |: z8 | z8 | z8 | %14
 z4"^Al          –         migh  –  ty     love  in – spires my heart,  Al  –  migh – ty  love   in  –  spires  my heart,  And""^Is                      he           a       God, and   shall   his grace,  Is       he          a   God,  and     shall    his grace,  Grow" c4 | %15
 f2 f2 c2 A2 | cB AG F2 B2 | AB cd c2 BA | dc BA c2 df | %19
"^plea–sure tunes my tongue, _________________________   Al  –    migh – ty   love  in   –   spires  my  heart,  And  pleasure tunes, And   pleasure tune my tongue.""^wea–ry     of     his  saints? __________________________   Is         he         a    God, and      shall     his  grace   Grow  weary  of,       Grow  wea – ry  of   his  saints?" ec d2 d2 c2 | %20
 c8- | c6 B2 | A>B cd c2 BA | Bc d2 c2 cB | AB cd c2 cB | AB cd c2 c2 | c8 :| %27
V:2
"^1. Now shall my inward joys arise, _________  And burst into a      song;   Almighty love inspires my heart, And   plea – sure  tunes my   tongue,  And pleasure tunes my tongue.""^2. Why do we then indulge our fears, _____ Suspicions and complaints?  Is he a God, and shall his grace    Grow wea – ry     of        his   saints?  Grow    weary  of  his  saints?" F4 F2 G2 | %1
 F2 F2 G2 G2 | (A3 G F2) F2 | G2 C2 G2 AF | G4 F4 | F2 G2 F2 F2 | G2 G2 A2 G2 | G2 FE D2 G2 | %8
 (F4 G2) A2 | A2 G2 F2 E2 | F8 |: z8 | z8 | z8 | %14
 z4"^Al          –         migh  –  ty     love  in – spires my heart,  Al  –  migh – ty  love   in  –  spires  my heart,  And""^Is                      he           a       God, and   shall   his grace,  Is       he          a   God,  and     shall    his grace,  Grow" G4 | %15
 A>B AG F2 F2 | F2 FG A2 G>B | AG FG A2 G2 | F2 GA G2 FG | %19
"^plea–sure tunes, And pleasure tunes my tongue,""^wea–ry     of,       Grow weary  of       his  saints?" AF GA G2 G2 | %20
 A>B AG F2 FG | A6 G2 | F2 FG A2 G2 | F2 GA G2 G2 | A2 A2 G2 G2 | A2 A2 G2 G2 | A8 :| %27
V:3
 F4 c2 c2 | d2 d2 e2 e2 | (f3 e d2) c2 | B2 A2 G2 F2 | c6 AB | c2 c2 d2 d2 | e2 e2 f2 ed | %7
 cA FA BA GF | d6 f2 | c2 B2 A2 G2 | F8 |: z8 | z8 | %13
 z4"^Al     –     migh– ty        love    in   –   spires  my  heart, And pleasure  tunes, And     pleasure     tunes, And   pleasure   tunes,  And""^Is             he        a          God,  and       shall    his  grace  Grow wea–ry   of,     Grow    wea – ry   of,       Grow wea – ry   of,       Grow" c4 | %14
 c2 f2 e>f ed | c>d c=B c2 c2 | A2 c2 f2 ed | c>d cB A2 Bc | dc df e2 d2 | %19
"^pleasure  tunes, And pleasure tunes my   tongue,  Al  –    migh – ty   love  in   –   spires  my  heart,  And  pleasure tunes, And   pleasure tune my tongue.""^wea–ry   of,       Grow weary     of,     his   saints?   Is         he         a    God, and      shall     his  grace   Grow  weary  of,       Grow  wea – ry  of   his  saints?" c2 BA d2 e2 | %20
 f2 c2 A2 c2 | f6 ed | c>d cB A2 Bc | dc BA c2 c2 | c2 f2 e2 c2 | c2 f2 e2 e2 | f8 :| %27
V:4
 F,4 F,2 E,2 | D,2 D,2 C,2 C,2 | F,4 B,2 A,2 | G,2 F,2 E,2 D,2 | C,4 F,4 | F,2 E,2 D,2 D,2 | %6
 C,2 C,2 F,2 G,2 | C,2 F,2 G,F, G,A, | (B,3 A, G,2) F,2 | A,2 B,2 C2 C,2 | F,8 |: %11
 z4"^Al   –   migh – ty  love  in  –  spires my heart, And pleasure  tunes   my       tongue, _______________________________          Al    –    migh  –  ty    love  in – spires my heart,  And""^Is       he          a     God, and    shall   his  grace  Grow wea–ry  of        his       saints? _______________________________           Is           he           a      God, and   shall   his grace  Grow" F,4 | %12
 A,>B, A,G, F,2 G,A, | B,A, G,F, E,2 C,2 | F,G, A,B, C2 C,2 | F,8- | F,6 G,2 | %17
 A,>B, A,G, F,2 G,A, | B,A, G,F, C2 B,2 | %19
"^pleasure  tunes  my   tongue, ______________________""^wea–ry    of       his    saints? ______________________" A,2 G,F, G,2 C,2 | %20
 F,8- | F,6 G,2 | A,>B, A,G, F,2 G,A, | B,A, G,F, E,2 C,2 | F,G, A,B, C2 C,2 | F,G, A,B, C2 C,2 | %26
 F,8 :| %27

